svg/fluentui-system-icons/ic_fluent_device_meeting_room_32_regular.svg

<svg width="32" height="32" viewBox="0 0 32 32" fill="none" xmlns="http://www.w3.org/2000/svg">
<path d="M9.46967 4C7.56036 4 5.88535 5.27303 5.37434 7.11252L2.15494 18.7012C1.41502 21.3647 3.41824 24 6.18282 24H25.8172C28.5818 24 30.585 21.3647 29.8451 18.7012L26.6257 7.11251C26.1146 5.27303 24.4396 4 22.5303 4H9.46967ZM7.30155 7.6478C7.57209 6.67396 8.45886 6 9.46967 6H22.5303C23.5411 6 24.4279 6.67396 24.6984 7.6478L27.9178 19.2365C28.3037 20.6256 27.259 22 25.8172 22H6.18282C4.74101 22 3.69627 20.6256 4.08216 19.2365L7.30155 7.6478ZM7.99909 26C7.44676 26 6.999 26.4477 6.999 27C6.999 27.5523 7.44676 28 7.99909 28H24.0006C24.5529 28 25.0007 27.5523 25.0007 27C25.0007 26.4477 24.5529 26 24.0006 26H7.99909Z" fill="#212121"/>
</svg>

<svg xmlns="http://www.w3.org/2000/svg" width="32" height="32"><path d="M9.47 4a4.25 4.25 0 0 0-4.096 3.113L2.154 18.7c-.738 2.665 1.265 5.3 4.03 5.3h19.634c2.765 0 4.768-2.635 4.028-5.299l-3.22-11.588A4.25 4.25 0 0 0 22.53 4H9.47ZM7.302 7.648A2.25 2.25 0 0 1 9.47 6h13.06a2.25 2.25 0 0 1 2.168 1.648l3.22 11.588a2.18 2.18 0 0 1-2.1 2.764H6.182a2.18 2.18 0 0 1-2.1-2.764L7.301 7.649ZM7.999 26a1 1 0 1 0 0 2h16.002a1 1 0 1 0 0-2H7.999Z"/></svg>
